assets/images/cards/apple-pay.svg

<svg width="64" height="40" viewBox="0 0 64 40" fill="none" xmlns="http://www.w3.org/2000/svg">
<path d="M60.686 0H3.78575C1.90963 0 0.388724 1.5209 0.388724 3.39703V36.603C0.388724 38.4791 1.90963 40 3.78575 40H60.686C62.5621 40 64.083 38.4791 64.083 36.603V3.39703C64.083 1.5209 62.5621 0 60.686 0Z" fill="white"/>
<path fill-rule="evenodd" clip-rule="evenodd" d="M18.9227 13.3207C18.4145 13.9286 17.6015 14.4082 16.7884 14.3397C16.6867 13.5176 17.0848 12.6442 17.5506 12.1047C18.0588 11.4795 18.9481 11.0343 19.6681 11C19.7527 11.8563 19.4224 12.6955 18.9227 13.3207ZM19.6595 14.5023C18.9432 14.4606 18.2896 14.7201 17.7617 14.9297L17.7617 14.9297C17.4219 15.0646 17.1342 15.1788 16.9154 15.1788C16.6697 15.1788 16.3702 15.0585 16.0338 14.9234L16.0338 14.9234C15.5931 14.7464 15.0892 14.544 14.5608 14.5537C13.3496 14.5708 12.2232 15.2645 11.6049 16.3691C10.3345 18.5785 11.2746 21.8496 12.5027 23.6479C13.104 24.5385 13.8239 25.5147 14.7725 25.4805C15.1899 25.4645 15.4901 25.3357 15.8007 25.2025C16.1584 25.049 16.53 24.8896 17.1102 24.8896C17.6702 24.8896 18.0255 25.0449 18.3666 25.1939C18.6909 25.3356 19.0024 25.4717 19.4647 25.4633C20.4472 25.4462 21.0655 24.5728 21.6668 23.6822C22.3158 22.7263 22.6009 21.7935 22.6442 21.6519L22.6493 21.6355C22.6483 21.6345 22.6403 21.6308 22.6262 21.6243L22.6261 21.6243L22.6261 21.6242C22.4092 21.5238 20.7511 20.7564 20.7352 18.6983C20.7192 16.9709 22.0503 16.0957 22.2599 15.9579L22.2599 15.9579C22.2726 15.9495 22.2812 15.9439 22.2851 15.941C21.4381 14.6736 20.1169 14.5366 19.6595 14.5023ZM26.4607 25.3692V12.019H31.4154C33.9733 12.019 35.7604 13.8002 35.7604 16.4034C35.7604 19.0067 33.9394 20.8049 31.3477 20.8049H28.5104V25.3692H26.4607ZM28.5102 13.7659H30.8732C32.6518 13.7659 33.6682 14.725 33.6682 16.412C33.6682 18.0989 32.6518 19.0666 30.8647 19.0666H28.5102V13.7659ZM42.5272 23.7678C41.9851 24.8125 40.7909 25.4719 39.5035 25.4719C37.5979 25.4719 36.2681 24.3244 36.2681 22.5947C36.2681 20.882 37.5555 19.8972 39.9355 19.7516L42.4933 19.5975V18.8611C42.4933 17.7735 41.7903 17.1827 40.5368 17.1827C39.5035 17.1827 38.7497 17.7221 38.5973 18.5442H36.7509C36.8102 16.8144 38.4194 15.5556 40.5961 15.5556C42.9422 15.5556 44.4667 16.7973 44.4667 18.724V25.3692H42.5695V23.7678H42.5272ZM40.0543 23.8878C38.9617 23.8878 38.2672 23.3569 38.2672 22.5434C38.2672 21.7041 38.9363 21.216 40.2152 21.139L42.4935 20.9934V21.747C42.4935 22.9972 41.4433 23.8878 40.0543 23.8878ZM50.7598 25.8915C49.9383 28.2293 48.9982 29 46.9993 29C46.8469 29 46.3387 28.9828 46.2201 28.9486V27.3473C46.3472 27.3644 46.6605 27.3815 46.8215 27.3815C47.7277 27.3815 48.2359 26.9962 48.5493 25.9943L48.7356 25.4034L45.2631 15.6841H47.4059L49.8197 23.5708H49.8621L52.2759 15.6841H54.3594L50.7598 25.8915Z" fill="black"/>
</svg>

<svg xmlns="http://www.w3.org/2000/svg" width="64" height="40" fill="none"><path fill="#fff" d="M60.69 0H3.79a3.4 3.4 0 0 0-3.4 3.4v33.2a3.4 3.4 0 0 0 3.4 3.4h56.9a3.4 3.4 0 0 0 3.4-3.4V3.4a3.4 3.4 0 0 0-3.4-3.4Z"/><path fill="#000" fill-rule="evenodd" d="M18.92 13.32c-.5.6-1.32 1.09-2.13 1.02-.1-.82.3-1.7.76-2.24.5-.62 1.4-1.07 2.12-1.1.08.86-.25 1.7-.75 2.32Zm.74 1.18a4.45 4.45 0 0 0-1.9.43 2.7 2.7 0 0 1-.84.25c-.25 0-.55-.12-.89-.26-.44-.17-.94-.38-1.47-.37a3.47 3.47 0 0 0-2.96 1.82c-1.27 2.2-.33 5.48.9 7.28.6.89 1.32 1.86 2.27 1.83.42-.02.72-.14 1.03-.28.36-.15.73-.31 1.31-.31.56 0 .92.15 1.26.3.32.15.63.28 1.1.27.98-.01 1.6-.89 2.2-1.78.65-.95.93-1.89.97-2.03v-.01l-.01-.02c-.22-.1-1.88-.86-1.9-2.92a3.28 3.28 0 0 1 1.53-2.74l.03-.02a3.34 3.34 0 0 0-2.63-1.44Zm6.8 10.87V12.02h4.96a4.16 4.16 0 0 1 4.34 4.38c0 2.6-1.82 4.4-4.41 4.4H28.5v4.57h-2.05Zm2.05-11.6h2.36c1.78 0 2.8.96 2.8 2.64 0 1.69-1.02 2.66-2.8 2.66H28.5v-5.3Zm14.02 10a3.38 3.38 0 0 1-3.03 1.7c-1.9 0-3.23-1.15-3.23-2.88 0-1.7 1.29-2.7 3.67-2.84l2.55-.15v-.74c0-1.09-.7-1.68-1.95-1.68-1.04 0-1.79.54-1.94 1.36h-1.85c.06-1.73 1.67-2.98 3.85-2.98 2.34 0 3.87 1.24 3.87 3.16v6.65h-1.9v-1.6h-.04Zm-2.48.12c-1.09 0-1.78-.53-1.78-1.35 0-.84.67-1.32 1.95-1.4l2.27-.15v.76c0 1.25-1.05 2.14-2.44 2.14Zm10.71 2C49.94 28.23 49 29 47 29a5.6 5.6 0 0 1-.78-.05v-1.6l.6.03c.9 0 1.42-.38 1.73-1.39l.19-.59-3.48-9.72h2.15l2.41 7.9h.04l2.42-7.9h2.08l-3.6 10.21Z" clip-rule="evenodd"/></svg>
